X: 10943
T: COTILLION No. 13. tune 3
C:
%R: march, reel
B: Elias Howe "The Musician's Companion" Part 1 1842 p.94 #3
S: http://imslp.org/wiki/The_Musician's_Companion_(Howe,_Elias)
Z: 2015 John Chambers <jc:trillian.mit.edu>
M: 2/4
L: 1/16
K: D
% - - - - - - - - - - - - - - - - - - - - - - - - -
fg |\
a2a2 d'2d'2 | b2b2 e2e2 | a2a2 dcdf | e^def e2fg |\
a2a2 d'2d'2 | b2b2 e2e2 | a2af edef | d4 z2 H|]
d2 |\
A2d2 A2d2 | e2ef g2gf | e2ed cBcA | defg abc'd' |\
A2d2 A2d2 | e2ef g2gf | e2ed cBcA | d2f2"^D.C."d2 |]
Bc |\
d2d2 f2f2 | d2d2 B2b2 | ^a2a2 babd' | c'2^a2 f2Bc |\
d2d2 f2f2 | d2d2 b2b2 | dcde f2^A2 | B4 "^D.C."z2 |]
% - - - - - - - - - - Dance description - - - - - - - - - -
%%begintext align
%% First 4 lead to right,
%% chassa out,
%% form lines across the hall,
%% all right and left across the hall,
%% ladies all chain across the hall,
%% all forward and back,
%% swing partners to place,
%% sides the same.
%%endtext
%- - - - - - - - - - - - - - - - - - - - - - - - -
%%sep 1 1 300


